icon-themes/breeze_svg/cmd/sc_basicideappear.svg

<svg viewBox="0 0 16 16" xmlns="http://www.w3.org/2000/svg"><path d="m7 2v1.09375c-.6727212.1161594-1.1822401.4352214-1.75.75h-.03125l-.8125-.84375-1.40625 1.40625.84375.8125v.03125c-.3862748.5557183-.5525327 1.1334238-.75 1.75h-1.09375v2h1.09375c.1137826.6668888.437325 1.186198.75 1.75.005.008-.005.02355 0 .03125l-.84375.8125 1.40625 1.40625.8125-.84375c.5638062.374058 1.1600148.544248 1.78125.75v1.09375h1v-2c-2.209139 0-4-1.790861-4-4s1.790861-4 4-4c1.8617385 0 3.411354 1.2777328 3.857422 3h1.048828c-.125041-.6669856-.428615-1.1774548-.71875-1.75l.8125-.84375-1.40625-1.40625-.84375.8125c-.551985-.3466447-1.1587478-.5176954-1.75-.71875v-1.09375zm0 4v4l3-2z" fill="#4d4d4d"/><path d="m13 8-4 4v1 1h2l4-4zm-.3125 1.6875.59375.59375c-1.033385 1.022687-2.08824 2.118231-2.96875 3l-.59375-.59375c.982609-1.006949 1.97392-2.00517 2.96875-3z" fill="#f47750"/></svg>

<svg xmlns="http://www.w3.org/2000/svg" viewBox="0 0 16 16">
  <path
     style="fill:#4d4d4d"
     d="M 7 2 L 7 3.09375 C 6.3272788 3.2099094 5.8177599 3.5289714 5.25 3.84375 L 5.21875 3.84375 L 4.40625 3 L 3 4.40625 L 3.84375 5.21875 L 3.84375 5.25 C 3.4574752 5.8057183 3.2912173 6.3834238 3.09375 7 L 2 7 L 2 9 L 3.09375 9 C 3.2075326 9.6668888 3.531075 10.186198 3.84375 10.75 C 3.84875 10.758 3.83875 10.77355 3.84375 10.78125 L 3 11.59375 L 4.40625 13 L 5.21875 12.15625 C 5.7825562 12.530308 6.3787648 12.700498 7 12.90625 L 7 14 L 8 14 L 8 12 C 5.790861 12 4 10.209139 4 8 C 4 5.790861 5.790861 4 8 4 C 9.8617385 4 11.411354 5.2777328 11.857422 7 L 12.90625 7 C 12.781209 6.3330144 12.477635 5.8225452 12.1875 5.25 L 13 4.40625 L 11.59375 3 L 10.75 3.8125 C 10.198015 3.4658553 9.5912522 3.2948046 9 3.09375 L 9 2 L 7 2 z M 7 6 L 7 10 L 10 8 L 7 6 z "/>
  <path
     style="fill:#f47750"
     d="m 13,8 -4,4 v 1 1 h 2 l 4,-4 z m -0.3125,1.6875 0.59375,0.59375 c -1.033385,1.022687 -2.08824,2.118231 -2.96875,3 L 9.71875,12.6875 c 0.982609,-1.006949 1.97392,-2.00517 2.96875,-3 z"
     />
</svg>
